assets/awssecretsmanager/original.svg

<svg height="64" viewBox="0 0 64 64" width="64" xmlns="http://www.w3.org/2000/svg"><g fill="none" fill-rule="evenodd"><path d="m0 0h64v64h-64z" fill="#dd344c"/><path d="m31.24 34.64a.76.76 0 0 0 1.52 0 .76.76 0 0 0 -1.52 0m-2 0a2.763 2.763 0 0 1 2.76-2.76 2.764 2.764 0 0 1 2.76 2.76 2.76 2.76 0 0 1 -1.76 2.565v2.795h-2v-2.795a2.76 2.76 0 0 1 -1.76-2.565m9.76-3.64h-14v10h14v-2h-2v-2h2v-2h-2v-2h2zm-12-2h9.999l.001-4c0-.865-.576-1.859-1.543-2.659-1.014-.84-2.305-1.341-3.454-1.341h-.002c-2.383 0-5 2.093-5.001 4zm12-4-.001 4h1.001a1 1 0 0 1 1 1v12a1 1 0 0 1 -1 1h-16a1 1 0 0 1 -1-1v-12a1 1 0 0 1 1-1h1v-4c.001-3.029 3.469-6 7.001-6h.002c1.625 0 3.348.657 4.729 1.801 1.442 1.193 2.269 2.724 2.268 4.199m-23.511 18.95 1.621-1.173a18.2 18.2 0 0 1 -3.434-9.777h2.324v-2h-2.322a18.2 18.2 0 0 1 3.432-9.719l-1.621-1.173a20.18 20.18 0 0 0 -3.811 10.892h-1.678v2h1.676c.185 3.962 1.484 7.731 3.813 10.95m27.258 2.968a18.2 18.2 0 0 1 -9.747 3.432v-2.35h-2v2.35a18.2 18.2 0 0 1 -9.75-3.432l-1.172 1.62a20.17 20.17 0 0 0 10.922 3.812v1.65h2v-1.65c3.951-.19 7.709-1.488 10.919-3.812zm-21.497-29.778a18.2 18.2 0 0 1 9.75-3.433v2.293h2v-2.293a18.2 18.2 0 0 1 9.747 3.433l1.172-1.62a20.16 20.16 0 0 0 -10.919-3.813v-1.707h-2v1.707a20.17 20.17 0 0 0 -10.922 3.813zm31.069 13.86a20.17 20.17 0 0 0 -3.81-10.892l-1.622 1.173a18.16 18.16 0 0 1 3.432 9.719h-2.319v2h2.322a18.2 18.2 0 0 1 -3.435 9.777l1.622 1.173c2.329-3.219 3.627-6.988 3.813-10.95h1.678v-2zm-7.293-10.584 6.159-6.16-1.414-1.414-6.159 6.16zm-26.055 23.226-6.16 6.16 1.414 1.414 6.161-6.16zm4.275-21.809-11.66-11.66-1.414 1.414 11.66 11.66zm20.057 20.057 10.523 10.523-1.414 1.414-10.524-10.523z" fill="#fff"/></g></svg>

<svg xmlns="http://www.w3.org/2000/svg" width="64" height="64" viewBox="0 0 64 64"><g fill="none" fill-rule="evenodd"><path fill="#dd344c" d="M0 0h64v64H0z"/><path fill="#fff" d="M31.24 34.64a.76.76 0 0 0 1.52 0 .76.76 0 0 0-1.52 0m-2 0A2.763 2.763 0 0 1 32 31.88a2.764 2.764 0 0 1 2.76 2.76A2.76 2.76 0 0 1 33 37.205V40h-2v-2.795a2.76 2.76 0 0 1-1.76-2.565M39 31H25v10h14v-2h-2v-2h2v-2h-2v-2h2zm-12-2h9.999L37 25c0-.865-.576-1.859-1.543-2.659-1.014-.84-2.305-1.341-3.454-1.341h-.002c-2.383 0-5 2.093-5.001 4zm12-4-.001 4H40a1 1 0 0 1 1 1v12a1 1 0 0 1-1 1H24a1 1 0 0 1-1-1V30a1 1 0 0 1 1-1h1v-4c.001-3.029 3.469-6 7.001-6h.002c1.625 0 3.348.657 4.729 1.801C38.174 21.994 39.001 23.525 39 25M15.489 43.95l1.621-1.173A18.2 18.2 0 0 1 13.676 33H16v-2h-2.322a18.2 18.2 0 0 1 3.432-9.719l-1.621-1.173A20.2 20.2 0 0 0 11.678 31H10v2h1.676c.185 3.962 1.484 7.731 3.813 10.95m27.258 2.968A18.2 18.2 0 0 1 33 50.35V48h-2v2.35a18.2 18.2 0 0 1-9.75-3.432l-1.172 1.62A20.17 20.17 0 0 0 31 52.35V54h2v-1.65c3.951-.19 7.709-1.488 10.919-3.812zM21.25 17.14A18.2 18.2 0 0 1 31 13.707V16h2v-2.293a18.2 18.2 0 0 1 9.747 3.433l1.172-1.62A20.16 20.16 0 0 0 33 11.707V10h-2v1.707a20.17 20.17 0 0 0-10.922 3.813zM52.319 31a20.17 20.17 0 0 0-3.81-10.892l-1.622 1.173A18.16 18.16 0 0 1 50.319 31H48v2h2.322a18.2 18.2 0 0 1-3.435 9.777l1.622 1.173c2.329-3.219 3.627-6.988 3.813-10.95H54v-2zm-7.293-10.584 6.159-6.16-1.414-1.414-6.159 6.16zM18.971 43.642l-6.16 6.16 1.414 1.414 6.161-6.16zm4.275-21.809-11.66-11.66-1.414 1.414 11.66 11.66zM43.303 41.89l10.523 10.523-1.414 1.414-10.524-10.523z"/></g></svg>
